brandFactory_export/3.Masa/Comprar celulares_3Masa.svg

<?xml version="1.0" encoding="UTF-8"?>
<svg width="24px" height="24px" viewBox="0 0 24 24" version="1.1" xmlns="http://www.w3.org/2000/svg" xmlns:xlink="http://www.w3.org/1999/xlink">
    <title>3.Masa/Comprar celulares_3Masa</title>
    <g id="Symbols" stroke="none" stroke-width="1" fill="none" fill-rule="evenodd">
        <g id="3.Masa/Comprar-celulares_3Masa" fill="#5CB615" fill-rule="nonzero">
            <path d="M10.1647059,19.6537815 C10.7663866,19.6537815 11.2470588,19.8252101 11.5966387,20.1613445 C11.9630252,20.5142857 12.1478992,21.0084034 12.1478992,21.6369748 C12.1478992,22.2655462 11.9630252,22.7596639 11.5966387,23.112605 C11.2470588,23.4487395 10.7630252,23.6201681 10.1647059,23.6201681 C9.56638655,23.6201681 9.08235294,23.4487395 8.73277311,23.112605 C8.36638655,22.7596639 8.1815126,22.2655462 8.1815126,21.6369748 C8.1815126,21.0084034 8.36638655,20.5142857 8.73277311,20.1613445 C9.08235294,19.8252101 9.56302521,19.6537815 10.1647059,19.6537815 Z M16.7193277,19.6537815 C17.3210084,19.6537815 17.8016807,19.8252101 18.1512605,20.1613445 C18.5176471,20.5142857 18.702521,21.0084034 18.702521,21.6369748 C18.702521,22.2655462 18.5142857,22.7596639 18.1512605,23.112605 C17.8016807,23.4487395 17.3176471,23.6201681 16.7193277,23.6201681 C16.1210084,23.6201681 15.6369748,23.4487395 15.287395,23.112605 C14.9210084,22.7596639 14.7361345,22.2655462 14.7361345,21.6369748 C14.7361345,21.0084034 14.9210084,20.5142857 15.287395,20.1613445 C15.6369748,19.8252101 16.1176471,19.6537815 16.7193277,19.6537815 Z M16.6756303,0.00672268908 C18.1277311,0.00672268908 18.8638655,0.749579832 18.8638655,2.21848739 L18.8638655,2.21848739 L18.8638655,5.55966387 L22.9243697,5.55966387 C23.1327731,5.55966387 23.3277311,5.65378151 23.4554622,5.81848739 C23.5831933,5.98319328 23.6268908,6.19495798 23.5764706,6.4 C23.3915966,7.13277311 23.0386555,8.54117647 22.6689076,10.0336134 C22.2184874,11.8487395 21.7512605,13.7210084 21.610084,14.2689076 C21.2907563,15.4957983 20.8268908,16.4033613 20.1915966,17.0386555 C19.5193277,17.707563 18.6756303,18.0470588 17.6806723,18.0470588 L17.6806723,18.0470588 L10.1747899,18.0470588 C9.1697479,18.0470588 8.27563025,17.7109244 7.59663866,17.0689076 C6.88403361,16.3966387 6.42689076,15.4319328 6.23193277,14.2016807 C6.06386555,13.1327731 4.45042017,3.78487395 4.26890756,2.7697479 C4.12436975,1.96638655 3.28403361,1.35798319 2.3092437,1.35798319 L2.3092437,1.35798319 L0.685714285,1.35798319 C0.315966386,1.35798319 0.0134453778,1.05546218 0.0134453778,0.685714286 C0.0134453778,0.315966387 0.315966386,0.0134453782 0.685714285,0.0134453782 L0.685714285,0.0134453782 L2.30588235,0.0134453782 C3.94957983,0.0134453782 5.32773109,1.07226891 5.58991597,2.53445378 C5.65042017,2.8605042 5.85882353,4.05378151 6.11764706,5.55966387 L6.11764706,5.55966387 L9.98991597,5.55966387 L9.98991597,2.21848739 C9.98991597,0.773109244 10.7462185,0.00672268908 12.1781513,0.00672268908 L12.1781513,0.00672268908 Z M16.6789916,1.01512605 L12.1781513,1.01512605 C11.307563,1.01512605 10.9983193,1.32773109 10.9983193,2.21848739 L10.9983193,2.21848739 L10.9983193,11.0756303 C10.9983193,11.9865546 11.287395,12.2789916 12.1781513,12.2789916 L12.1781513,12.2789916 L16.6789916,12.2789916 C17.5731092,12.2789916 17.8588235,11.9865546 17.8588235,11.0756303 L17.8588235,11.0756303 L17.8588235,2.21848739 C17.8588235,1.30756303 17.5697479,1.01512605 16.6789916,1.01512605 L16.6789916,1.01512605 Z M14.4268908,9.79159664 C14.8571429,9.79159664 15.1361345,10.0168067 15.1327731,10.5008403 C15.1327731,10.7361345 15.0689076,10.907563 14.9546218,11.0252101 C14.8302521,11.1529412 14.6487395,11.2134454 14.4268908,11.2134454 C14.205042,11.2134454 14.0235294,11.1529412 13.8991597,11.0252101 C13.7848739,10.907563 13.7210084,10.7327731 13.7210084,10.5008403 C13.7210084,10.0168067 13.9966387,9.79159664 14.4268908,9.79159664 Z" id="Comprar-celulares_3Masa"></path>
        </g>
    </g>
</svg>

<svg width="24" height="24" viewBox="0 0 24 24" xmlns="http://www.w3.org/2000/svg"><path d="M10.165 19.654c.601 0 1.082.171 1.432.507.366.353.55.847.55 1.476s-.184 1.123-.55 1.476c-.35.336-.834.507-1.432.507-.599 0-1.083-.171-1.432-.507-.367-.353-.551-.847-.551-1.476s.184-1.123.55-1.476c.35-.336.831-.507 1.433-.507zm6.554 0c.602 0 1.083.171 1.432.507.367.353.552.847.552 1.476s-.189 1.123-.552 1.476c-.35.336-.833.507-1.432.507-.598 0-1.082-.171-1.432-.507-.366-.353-.55-.847-.55-1.476s.184-1.123.55-1.476c.35-.336.83-.507 1.432-.507zM16.676.007c1.452 0 2.188.743 2.188 2.211V5.56h4.06c.209 0 .404.094.531.258a.678.678 0 01.121.582c-.184.733-.537 2.141-.907 3.634-.45 1.815-.918 3.687-1.059 4.235-.32 1.227-.783 2.134-1.418 2.77-.673.669-1.516 1.008-2.511 1.008h-7.506c-1.005 0-1.9-.336-2.578-.978-.713-.672-1.17-1.637-1.365-2.867A2006.288 2006.288 0 004.269 2.77c-.145-.804-.985-1.412-1.96-1.412H.686A.674.674 0 01.013.686c0-.37.303-.673.673-.673h1.62c1.644 0 3.022 1.06 3.284 2.521.06.327.269 1.52.528 3.026H9.99V2.218c0-1.445.756-2.211 2.188-2.211zm.003 1.008h-4.5c-.871 0-1.18.313-1.18 1.203v8.858c0 .91.288 1.203 1.18 1.203h4.5c.894 0 1.18-.292 1.18-1.203V2.218c0-.91-.29-1.203-1.18-1.203zm-2.252 8.777c.43 0 .71.225.706.709 0 .235-.064.407-.178.524-.125.128-.306.188-.528.188-.222 0-.403-.06-.528-.188-.114-.117-.178-.292-.178-.524 0-.484.276-.71.706-.71z" fill="#5CB615" fill-rule="nonzero"/></svg>
